images/groupins-04.svg

<svg fill="none" height="48" viewBox="0 0 48 48" width="48" xmlns="http://www.w3.org/2000/svg" xmlns:xlink="http://www.w3.org/1999/xlink"><clipPath id="a"><path d="m0 0h48v48h-48z"/></clipPath><g clip-path="url(#a)" stroke="#ff512f" stroke-linecap="round" stroke-linejoin="round" stroke-width="4"><path d="m35.88 35.8801c-3.4188 2.606-7.5818 4.0497-11.88 4.1199-14 0-22-16-22-16 2.48778-4.6362 5.93827-8.6867 10.12-11.8799m7.68-3.64005c1.3767-.32224 2.7861-.48332 4.2-.48 14 0 22 15.99995 22 15.99995-1.214 2.2713-2.6619 4.4095-4.32 6.38m-13.44-2.14c-.5493.5895-1.2117 1.0624-1.9477 1.3903s-1.5305.5043-2.3361.5185-1.6059-.134-2.353-.4358c-.7471-.3017-1.4258-.7509-1.9955-1.3206-.5698-.5698-1.0189-1.2485-1.3207-1.9956s-.4499-1.5473-.4357-2.3529c.0142-.8057.1905-1.6002.5185-2.3362.3279-.7359.8007-1.3984 1.3902-1.9476"/><path d="m2 2 44 44"/></g></svg>

<svg width="48" height="48" viewBox="0 0 48 48" fill="none" xmlns="http://www.w3.org/2000/svg">
<g clip-path="url(#clip0_754_253)">
<path d="M35.88 35.8801C32.4612 38.4861 28.2982 39.9298 24 40C10 40 2 24 2 24C4.48778 19.3638 7.93827 15.3133 12.12 12.1201M19.8 8.48005C21.1767 8.15781 22.5861 7.99673 24 8.00005C38 8.00005 46 24 46 24C44.786 26.2713 43.3381 28.4095 41.68 30.38M28.24 28.24C27.6907 28.8295 27.0283 29.3024 26.2923 29.6303C25.5563 29.9582 24.7618 30.1346 23.9562 30.1488C23.1506 30.163 22.3503 30.0148 21.6032 29.713C20.8561 29.4113 20.1774 28.9621 19.6077 28.3924C19.0379 27.8226 18.5888 27.1439 18.287 26.3968C17.9852 25.6497 17.8371 24.8495 17.8513 24.0439C17.8655 23.2382 18.0418 22.4437 18.3698 21.7077C18.6977 20.9718 19.1705 20.3093 19.76 19.7601" stroke="#FF512F" stroke-width="4" stroke-linecap="round" stroke-linejoin="round"/>
<path d="M2 2L46 46" stroke="#FF512F" stroke-width="4" stroke-linecap="round" stroke-linejoin="round"/>
</g>
<defs>
<clipPath id="clip0_754_253">
<rect width="48" height="48" fill="white"/>
</clipPath>
</defs>
</svg>
